X: 1
T: Apple Tree
R: reel
B: Kerr's #2
Z: 1997 by John Chambers <jc:trillian.mit.edu>
M: C|
L: 1/8
K: A
|:\
"A"A2a2 fedc | Aaga fedc | "Bm"Bcde fBBc | Bcde "E7"fefa | "A"A2a2 fedc |
Aaga fedc | "Bm"Bcde fBBa | "E7"gefg "A"a4 :: "A"EAAB cBAF | EAAB cBAG |
"Bm"FBBc dcBA | "E7"GABc defe | "A"EAAB cBAF | EAAB cBAG | "Bm"FBBc dcBA | "E7"GEFG "A"A4 :|
